X:167
M:6/8
L:1/8
K:G
|: d | d>ed d>ed | c2A A2B | c>dc edc | B2G G2d | d>ed d>ed | e2f gfe | dcB cBA | (G3 G2) :|

